X:1203
T:"The Spinning Wheel"  (reel)    1203
C:after Mr. Cronin
B:O'Neill's Music Of Ireland (The 1850) Lyon & Healy, Chicago, 1903 edition
Z:FROM O'NEILL'S TO NOTEWORTHY, FROM NOTEWORTHY TO ABC, MIDI AND .TXT BY VINCE
BRENNAN July 2003 (HTTP://WWW.SOSYOURMOM.COM)
I:abc2nwc
M:C|
L:1/8
K:A
cAA(c B)AA(d|c)efg a2(g a)|bBB(c dc)BA|[1defg afed:|[2cefg afec
|: (3.A.A.A (AF) FEEF|A2(Bc) dcBc|(3.A.A.A (AF) FEEe| (3fga (ec) dcBc:|
Aceg agfe|(fe)fg (af)dc|Aceg agfe|(3(fga) (3(gab) afdB|
Aceg agfe|(fe)fg (ag)af| (3(bag) (3(agf) (3(gfe) (3(fed)|(3(fga) (3(gab) afec
|:(3(fga) (ec) dcBc|AEAB cAce| (3(fga) (ec) dcBc|(AF)FE (FA) A2:|


